X:1
T:Title
%%score { 1 | 2 }
L:1/8
Q:1/4=100
M:6/8
K:F
V:1 treble nm="Grand Piano"
V:2 bass 
V:1
 c2 A G2 F | F3 .E3 | [EG]2 [FA] [GB]2 [EG] | A6 | c2 A G2 A | [DFc]3 .[DFB]3 | [CFA]2 G F2 E | %7
w: J.~M.~Stillman * * *|||||||
 F6 | [EG]2 [Ec] [F=B]2 [Gc] | [G=B]3 .A3 | G2 A G2 F | E6 | [EG]2 [Ec] [F=B]2 [Gc] | d3 .A3 | %14
w: |||||||
 =B2 B A2 B | [Ec]6 | c2 A G2 F | F3 .E3 | [EG]2 [FA] [GB]2 [EG] | A6 | c2 A G2 A | %21
w: |||||||
 [DFc]3 .[DFB]3 | [CFA]2 G F2 E |[M:7/4] F6 z2 z2 z4 |] %24
w: |||
V:2
 [F,A,C]2 [F,C] [F,B,C]2 [F,A,C] | [C,A,C]3 .[C,G,C]3 | [C,C]2 [C,C] [C,C]2 [C,C] | [F,CF]6 | %4
 [F,A,F]2 [F,CF] [F,B,F]2 [F,CF] | B,,3 .B,,3 | C,2 [C,B,C] [C,A,C]2 [C,G,C] | [F,A,C]6 | %8
 [C,C]2 [C,C] [D,G,]2 [E,C] | [F,C]3 .[F,CF]3 | [G,CE]2 [G,C] [G,=B,]2 [G,D] | [C,G,C]6 | %12
 [C,C]2 [C,G,] [D,G,]2 [E,G,] | [F,A,F]3 .[F,DF]3 | [G,DF]2 [G,DF] [G,DF]2 [G,DF] | [C,C]6 | %16
 [F,A,C]2 [F,C] [F,B,C]2 [F,A,C] | [C,A,C]3 .[C,G,C]3 | [C,C]2 [C,C] [C,C]2 [C,C] | [F,CF]6 | %20
 [F,A,F]2 [F,CF] [F,B,F]2 [F,CF] | B,,3 .B,,3 | C,2 [C,B,C] [C,A,C]2 [C,G,C] | %23
[M:7/4] [F,A,C]6 z2 z2 z4 |] %24

